icons/lines/video-octagon.svg

<svg xmlns="http://www.w3.org/2000/svg" width="24" height="24" viewBox="0 0 24 24" fill="none" stroke="currentColor" stroke-width="2" stroke-linecap="round" stroke-linejoin="round" >
  <path d="M21.0801 8.58003V15.42C21.0801 16.54 20.4802 17.58 19.5102 18.15L13.5702 21.58C12.6002 22.14 11.4002 22.14 10.4202 21.58L4.48016 18.15C3.51016 17.59 2.91016 16.55 2.91016 15.42V8.58003C2.91016 7.46003 3.51016 6.41999 4.48016 5.84999L10.4202 2.42C11.3902 1.86 12.5902 1.86 13.5702 2.42L19.5102 5.84999C20.4802 6.41999 21.0801 7.45003 21.0801 8.58003Z"/>
  <path d="M9.75 12V10.8C9.75 9.26001 10.84 8.63005 12.17 9.40005L13.21 10L14.25 10.6C15.58 11.37 15.58 12.63 14.25 13.4L13.21 14L12.17 14.6C10.84 15.37 9.75 14.74 9.75 13.2V12Z" stroke-miterlimit="10"/>
  </svg>

<svg xmlns="http://www.w3.org/2000/svg" width="24" height="24" viewBox="0 0 24 24" fill="none" stroke="currentColor" stroke-width="2" stroke-linecap="round" stroke-linejoin="round">
  <path d="M21.08 15.42a3.17 3.17 0 0 1-1.57 2.73l-5.94 3.43a3.16 3.16 0 0 1-3.15 0l-5.94-3.43a3.15 3.15 0 0 1-1.57-2.73V8.58a3.17 3.17 0 0 1 1.57-2.73l5.94-3.43a3.16 3.16 0 0 1 3.15 0l5.94 3.43a3.16 3.16 0 0 1 1.57 2.73z" />
  <path d="M9.75 10.8c0-1.54 1.09-2.17 2.42-1.4l2.08 1.2c1.33.77 1.33 2.03 0 2.8l-2.08 1.2c-1.33.77-2.42.14-2.42-1.4z" />
</svg>
